src/icons/icon-lock.svg

<svg xmlns="http://www.w3.org/2000/svg" viewBox="0 0 17 20" version="1.1" aria-hidden="true" class="icon">
  <title>Lock icon</title>
  <path fill="#FFFFFF" d="M15.725,8.3333333 L15.3,8.3333333 L15.3,6.875 C15.3,3.02 12.3131,0 8.5,0 C4.6869,0 1.7,3.02 1.7,6.875 L1.7,8.3333333 L1.275,8.3333333 C0.5712,8.3333333 0,8.8933333 0,9.5833333 L0,18.75 C0,19.44 0.5712,20 1.275,20 L15.725,20 C16.4288,20 17,19.44 17,18.75 L17,9.5833333 C17,8.8933333 16.4288,8.3333333 15.725,8.3333333 L15.725,8.3333333 L15.725,8.3333333 Z M4.25,6.875 C4.25,4.3808333 6.07665,2.5 8.5,2.5 C10.92335,2.5 12.75,4.3808333 12.75,6.875 L12.75,8.3333333 L4.25,8.3333333 L4.25,6.875 L4.25,6.875 Z M10.2,15.0166667 C10.2,15.9275 9.44605,16.6666667 8.517,16.6666667 L8.483,16.6666667 C7.55395,16.6666667 6.8,15.9275 6.8,15.0166667 L6.8,13.3166667 C6.8,12.4058333 7.55395,11.6666667 8.483,11.6666667 L8.517,11.6666667 C9.44605,11.6666667 10.2,12.4058333 10.2,13.3166667 L10.2,15.0166667 L10.2,15.0166667 Z"/>
</svg>

<svg xmlns="http://www.w3.org/2000/svg" viewBox="0 0 17 20" class="icon"><title>Lock icon</title><path fill="#FFF" d="M15.725 8.333H15.3V6.875C15.3 3.02 12.313 0 8.5 0 4.687 0 1.7 3.02 1.7 6.875v1.458h-.425C.571 8.333 0 8.893 0 9.583v9.167C0 19.44.571 20 1.275 20h14.45c.704 0 1.275-.56 1.275-1.25V9.583c0-.69-.571-1.25-1.275-1.25zM4.25 6.875C4.25 4.381 6.077 2.5 8.5 2.5s4.25 1.88 4.25 4.375v1.458h-8.5V6.875zm5.95 8.142c0 .91-.754 1.65-1.683 1.65h-.034c-.93 0-1.683-.74-1.683-1.65v-1.7c0-.911.754-1.65 1.683-1.65h.034c.93 0 1.683.739 1.683 1.65v1.7z"/></svg>
